icons/svg/shields/h_fav_purple_shield.svg

<?xml version="1.0" encoding="UTF-8" standalone="no"?>
<!-- Generator: Adobe Illustrator 16.0.4, SVG Export Plug-In . SVG Version: 6.00 Build 0)  -->

<svg
   xmlns:dc="http://purl.org/dc/elements/1.1/"
   xmlns:cc="http://creativecommons.org/ns#"
   xmlns:rdf="http://www.w3.org/1999/02/22-rdf-syntax-ns#"
   xmlns:svg="http://www.w3.org/2000/svg"
   xmlns="http://www.w3.org/2000/svg"
   xmlns:sodipodi="http://sodipodi.sourceforge.net/DTD/sodipodi-0.dtd"
   xmlns:inkscape="http://www.inkscape.org/namespaces/inkscape"
   version="1.1"
   id="Слой_1"
   x="0px"
   y="0px"
   width="30"
   height="30"
   viewBox="0 0 29.999998 30"
   enable-background="new 0 0 17.113 17.143"
   xml:space="preserve"
   inkscape:version="0.91 r"
   sodipodi:docname="h_fav_purple_shield.svg"><metadata
     id="metadata13"><rdf:RDF><cc:Work
         rdf:about=""><dc:format>image/svg+xml</dc:format><dc:type
           rdf:resource="http://purl.org/dc/dcmitype/StillImage" /><dc:title></dc:title></cc:Work></rdf:RDF></metadata><defs
     id="defs11" /><sodipodi:namedview
     pagecolor="#ffffff"
     bordercolor="#666666"
     borderopacity="1"
     objecttolerance="10"
     gridtolerance="10"
     guidetolerance="10"
     inkscape:pageopacity="0"
     inkscape:pageshadow="2"
     inkscape:window-width="1332"
     inkscape:window-height="739"
     id="namedview9"
     showgrid="false"
     inkscape:zoom="13.766552"
     inkscape:cx="-3.6120274"
     inkscape:cy="11.693371"
     inkscape:window-x="34"
     inkscape:window-y="1024"
     inkscape:window-maximized="1"
     inkscape:current-layer="Слой_1" /><path
     d="m 14.999999,0.07137509 c 8.261171,0 14.928625,6.66740661 14.928625,14.92949491 0,8.211658 -6.667454,14.927755 -14.928625,14.927755 -8.2594252,0 -14.92862478,-6.716097 -14.92862478,-14.927755 0,-8.2620883 6.66919958,-14.92949491 14.92862478,-14.92949491 l 0,0 z"
     id="path3-9"
     style="clip-rule:evenodd;fill:#ffffff;fill-opacity:0.63684214;fill-rule:evenodd"
     inkscape:connector-curvature="0" /><path
     d="m 14.999999,1.3734963 c 7.540605,0 13.626503,6.0858547 13.626503,13.6272977 0,7.49541 -6.085898,13.625708 -13.626503,13.625708 -7.5390118,0 -13.6265024,-6.130298 -13.6265024,-13.625708 0,-7.541443 6.0874906,-13.6272977 13.6265024,-13.6272977 l 0,0 z"
     id="path3-8"
     style="color:#000000;clip-rule:evenodd;display:inline;overflow:visible;visibility:visible;opacity:1;isolation:auto;mix-blend-mode:normal;color-interpolation:sRGB;color-interpolation-filters:linearRGB;solid-color:#000000;solid-opacity:1;fill:#9c27b0;fill-opacity:1;fill-rule:evenodd;stroke-width:1;stroke-linecap:butt;stroke-linejoin:miter;stroke-miterlimit:4;stroke-dasharray:none;stroke-dashoffset:0;stroke-opacity:1;color-rendering:auto;image-rendering:auto;shape-rendering:auto;text-rendering:auto;enable-background:accumulate;filter-blend-mode:normal;filter-gaussianBlur-deviation:0"
     inkscape:connector-curvature="0" /></svg>

<svg width="30" height="30" viewBox="0 0 30 30" fill="none" xmlns="http://www.w3.org/2000/svg">
<path fill-rule="evenodd" clip-rule="evenodd" d="M15 0.0713501C23.2612 0.0713501 29.9286 6.73876 29.9286 15.0008C29.9286 23.2125 23.2612 29.9286 15 29.9286C6.74058 29.9286 0.0713806 23.2125 0.0713806 15.0008C0.0713806 6.73876 6.74058 0.0713501 15 0.0713501V0.0713501Z" fill="white" fill-opacity="0.636842"/>
<path fill-rule="evenodd" clip-rule="evenodd" d="M15 1.37347C22.5406 1.37347 28.6265 7.45933 28.6265 15.0008C28.6265 22.4962 22.5406 28.6265 15 28.6265C7.46098 28.6265 1.37349 22.4962 1.37349 15.0008C1.37349 7.45933 7.46098 1.37347 15 1.37347V1.37347Z" fill="#9C27B0"/>
</svg>
